X:1
T:B  Major Timothy Swan, 1801
T:Joel Barlow, 1786 (Psalm 60)                        86. 86. (C. M.)
T:Energy
T:Transcribed from Swan's New England Harmony, 1801.
%%score [ 1 2 3 4 ]
L:1/8
Q:1/8=200
M:2/4
K:Bb
V:1 treble nm="Treble" snm="Tr."
V:2 treble nm="Counter" snm="C."
V:3 treble-8 nm="Tenor" snm="T."
V:4 bass nm="Bass" snm="B."
V:1
"^1. At–tend our  armies   to  the  fight,   And  be  their  guar – dian   God;         In  vain  shall  num–'rous  pow'rs  unite   Against  thy" B2 | %1
 F2 dB | f2 d2 | c3 c | B2 z F | F2 F2 | F3 F | F4- | F2 z c/d/ | e2 fd | d2 B2 | F3 A | B2 z B | %13
 G2 GB | %14
"^1. lif  – ted    rod.     Our troops beneath thy guiding hand  Shall  gain a  glad  re –nown:  'Tis    God  who   makes  the     fee–ble  stand,  And" d2 fd | %15
 c4- | c2 z c | f3 c | d3 F | B2 d2 | f3 d | g3 f | ed cB | A3 c | d2 cB | f2 ed | e2 eg | f3 e | %28
"^1. treads  the    migh –  ty     down." df dB | c2 F2 | [FB]4- | [FB]4 |] %32
V:2
"^2. Lord, thou hast scourged our guilty land.  Behold,  thy people  mourn;      Shall   vengeance  ever  guide  thy  hand,   And  mer–cy" D2 | %1
 F2 FD | D2 G2 | F3 F | F2 z F | F2 F2 | F3 F | F4- | F2 z F | GE DF | B2 BG | F3 F | F2 z F | %13
 G2 GE | %14
"^2. ne'er  re –  turn?        Beneath the terrors of thine eye,  Earth's haughty tow'rs de–cay;  Thy  frow–ning   man–tle  spreads  the sky  And" D2 DF | %15
 (G4 | F2) z F | F3 F | F3 G | F2 F2 | F3 F | D3 F | G2 G2 | F3 F | F3 F | B2 GF | G2 BG | F3 G | %28
"^2. mor– tals   melt     a   –    way." BF FB | A2 F2 | (F4 | D4) |] %32
V:3
"^3. Our Zi–on  trembles  at  thy stroke,  And dreads thy lif – ted      hand!        Oh,  heal  the  people  thou  hast  broke,  And  save  the" F2 | %1
 B2 Bd | d2 d2 | c3 c | d2 z d | f2 f2 | fd cB | (B4 | c2) z F | B2 Bd | d2 d2 | c3 c | d2 z B | %13
 B2 B2 | %14
"^3. sin–king   land.         Ex – alt   thy   banner in the field,  For  those  that  fear  thy name;  From bar–b'rous  hosts  our  na–tion shield,  And" df BA | %15
 (G4 | F2) z F | c3 A | F3 e | d2 d2 | d3 B | e3 d | cB ed |{d} c3 F | f2 f2 | ed cB | g2 g2 | %27
 f3 F |"^3. put   our      foes    to        shame." d2 df | cB cd | B4- | B4 |] %32
V:4
 B,,2 | B,,2 B,,2 | B,2 G,B, | F,3 F, | B,2 z B, | F,2 F,D, | D,2 F,2 | (B,,4 | F,2) z F, | %9
 E,2 D,2 | G,2 B,2 | F,3 F, | [B,,B,]2 z B,, | E,2 E,2 | D,2 B,,2 | (C,4 | F,2) z F, | F,3 F, | %18
 D,3 C, | B,,2 B,2 | B,3 B, | B,3 B, | C2 C,2 | F,3 F, | D,F, F,B, | B,2 CD | E2 C2 | D3 C | %28
 B,2 B,2 | F,2 F,2 | B,,4- | B,,4 |] %32

